svg/editor/list_expansion_fill.svg

<?xml version="1.0" encoding="UTF-8"?>
<svg width="24px" height="24px" viewBox="0 0 24 24" version="1.1" xmlns="http://www.w3.org/2000/svg" xmlns:xlink="http://www.w3.org/1999/xlink">
    <title>list_expansion_fill</title>
    <g id="Icon" stroke="none" stroke-width="1" fill="none" fill-rule="evenodd">
        <g id="Editor" transform="translate(-624.000000, -240.000000)" fill-rule="nonzero">
            <g id="list_expansion_fill" transform="translate(624.000000, 240.000000)">
                <path d="M24,0 L24,24 L0,24 L0,0 L24,0 Z M12.5934901,23.257841 L12.5819402,23.2595131 L12.5108777,23.2950439 L12.4918791,23.2987469 L12.4918791,23.2987469 L12.4767152,23.2950439 L12.4056548,23.2595131 C12.3958229,23.2563662 12.3870493,23.2590235 12.3821421,23.2649074 L12.3780323,23.275831 L12.360941,23.7031097 L12.3658947,23.7234994 L12.3769048,23.7357139 L12.4804777,23.8096931 L12.4953491,23.8136134 L12.4953491,23.8136134 L12.5071152,23.8096931 L12.6106902,23.7357139 L12.6232938,23.7196733 L12.6232938,23.7196733 L12.6266527,23.7031097 L12.609561,23.275831 C12.6075724,23.2657013 12.6010112,23.2592993 12.5934901,23.257841 L12.5934901,23.257841 Z M12.8583906,23.1452862 L12.8445485,23.1473072 L12.6598443,23.2396597 L12.6498822,23.2499052 L12.6498822,23.2499052 L12.6471943,23.2611114 L12.6650943,23.6906389 L12.6699349,23.7034178 L12.6699349,23.7034178 L12.678386,23.7104931 L12.8793402,23.8032389 C12.8914285,23.8068999 12.9022333,23.8029875 12.9078286,23.7952264 L12.9118235,23.7811639 L12.8776777,23.1665331 C12.8752882,23.1545897 12.8674102,23.1470016 12.8583906,23.1452862 L12.8583906,23.1452862 Z M12.1430473,23.1473072 C12.1332178,23.1423925 12.1221763,23.1452606 12.1156365,23.1525954 L12.1099173,23.1665331 L12.0757714,23.7811639 C12.0751323,23.7926639 12.0828099,23.8018602 12.0926481,23.8045676 L12.108256,23.8032389 L12.3092106,23.7104931 L12.3186497,23.7024347 L12.3186497,23.7024347 L12.3225043,23.6906389 L12.340401,23.2611114 L12.337245,23.2485176 L12.337245,23.2485176 L12.3277531,23.2396597 L12.1430473,23.1473072 Z" id="MingCute"></path>
                <path d="M4,3.5 C3.17157,3.5 2.5,4.17157 2.5,5 C2.5,5.82843 3.17157,6.5 4,6.5 L11.5,6.5 C12.3284,6.5 13,5.82843 13,5 C13,4.17157 12.3284,3.5 11.5,3.5 L4,3.5 Z M21.3118,5.82605 C21.597,5.26789 21.1667,4.60666 20.4808,4.54743 L20.1128888,4.51850936 L20.1128888,4.51850936 L19.6733904,4.49080887 L19.6733904,4.49080887 L19.1673976,4.4673127 L19.1673976,4.4673127 L18.6000032,4.451005 C18.401204,4.44709875 18.19302,4.44486992 17.9763,4.44486992 L17.3862614,4.45027032 L17.3862614,4.45027032 L16.846163,4.46488609 L16.846163,4.46488609 L16.1390172,4.49860033 L16.1390172,4.49860033 L15.5683158,4.53893657 C15.5130198,4.54347264 15.4605182,4.54797455 15.4109,4.55239 C14.7708,4.60934 14.4025,5.20995 14.6841,5.76292 L14.8390176,6.06002296 C14.8680484,6.11447064 14.8986956,6.17131426 14.9309754,6.23044984 L15.144375,6.611935 L15.144375,6.611935 L15.3977346,7.04343616 C15.534534,7.2708589 15.68661,7.515166 15.8544,7.77355 C15.96634,7.945924 16.075676,8.1097796 16.1815304,8.26480072 L16.4877712,8.70304456 L16.4877712,8.70304456 L16.7678568,9.08638504 L16.7678568,9.08638504 L17.1274257,9.55430341 C17.162792,9.5989573 17.19652,9.641126 17.2285,9.68077 C17.6259,10.1734 18.3944,10.1911 18.7702,9.72738 L18.9833448,9.45936088 L18.9833448,9.45936088 L19.2347984,9.13066784 C19.279568,9.0709682 19.325685,9.0088445 19.373025,8.94434875 L19.6707458,8.52932573 C19.7224802,8.45554982 19.7751888,8.37950588 19.8287472,8.30124592 L20.1593,7.80551 L20.1593,7.80551 C20.32232,7.554545 20.470706,7.3162286 20.6047307,7.09349219 L20.8537125,6.66966125 L20.8537125,6.66966125 L21.0648823,6.29258831 L21.0648823,6.29258831 L21.2387249,5.96748473 C21.264615,5.9179211 21.28897,5.87074 21.3118,5.82605 Z M21.3118,15.8259 C21.597,15.2678 21.1667,14.6065 20.4808,14.5473 L20.1128888,14.5184 L20.1128888,14.5184 L19.6733904,14.4907 L19.6733904,14.4907 L19.1673976,14.4671999 C18.9882168,14.4603999 18.7988024,14.4547999 18.6000032,14.4508999 L17.9763,14.4447999 L17.9763,14.4447999 L17.3862614,14.4501888 L17.3862614,14.4501888 L16.846163,14.4647937 L16.846163,14.4647937 L16.1390172,14.498498 L16.1390172,14.498498 L15.5683158,14.5388398 C15.5130198,14.5433777 15.4605182,14.5478818 15.4109,14.5523 C14.7708,14.6092 14.4025,15.2098 14.6841,15.7628 L14.9309754,16.2303284 L14.9309754,16.2303284 L15.144375,16.6118 L15.144375,16.6118 L15.3977346,17.0432876 C15.534534,17.270705 15.68661,17.51501 15.8544,17.7734 C16.02231,18.03197 16.184361,18.27137 16.3375911,18.4905335 L16.6314125,18.9015625 C16.67813,18.965465 16.723648,19.02704 16.7678568,19.086248 L17.1274257,19.5541445 C17.162792,19.598795 17.19652,19.64096 17.2285,19.6806 C17.6259,20.1733 18.3944,20.191 18.7702,19.7273 L18.9833448,19.4592528 L18.9833448,19.4592528 L19.2347984,19.1305384 C19.279568,19.070836 19.325685,19.00871 19.373025,18.9442125 L19.6707458,18.5291863 C19.7224802,18.4554112 19.7751888,18.3793688 19.8287472,18.3011112 L20.1593,17.8054 L20.1593,17.8054 C20.32232,17.55442 20.470706,17.316094 20.6047307,17.0933515 L20.8537125,16.6695125 L20.8537125,16.6695125 L21.0648823,16.2924375 L21.0648823,16.2924375 L21.2387249,15.9673345 C21.264615,15.917771 21.28897,15.87059 21.3118,15.8259 Z M2.5,12 C2.5,11.1716 3.17157,10.5 4,10.5 L11.5,10.5 C12.3284,10.5 13,11.1716 13,12 C13,12.8284 12.3284,13.5 11.5,13.5 L4,13.5 C3.17157,13.5 2.5,12.8284 2.5,12 Z M4,17.5 C3.17157,17.5 2.5,18.1716 2.5,19 C2.5,19.8284 3.17157,20.5 4,20.5 L11.5,20.5 C12.3284,20.5 13,19.8284 13,19 C13,18.1716 12.3284,17.5 11.5,17.5 L4,17.5 Z" id="形状" fill="#09244B"></path>
            </g>
        </g>
    </g>
</svg>

<svg xmlns="http://www.w3.org/2000/svg" width="24" height="24"><g fill="none" fill-rule="nonzero"><path d="M24 0v24H0V0h24ZM12.593 23.258l-.011.002-.071.035-.02.004-.014-.004-.071-.035c-.01-.004-.019-.001-.024.005l-.004.01-.017.428.005.02.01.013.104.074.015.004.012-.004.104-.074.012-.016.004-.017-.017-.427c-.002-.01-.009-.017-.017-.018Zm.265-.113-.013.002-.185.093-.01.01-.003.011.018.43.005.012.008.007.201.093c.012.004.023 0 .029-.008l.004-.014-.034-.614c-.003-.012-.01-.02-.02-.022Zm-.715.002a.023.023 0 0 0-.027.006l-.006.014-.034.614c0 .012.007.02.017.024l.015-.002.201-.093.01-.008.004-.011.017-.43-.003-.012-.01-.01-.184-.092Z"/><path fill="#09244B" d="M4 3.5a1.5 1.5 0 1 0 0 3h7.5a1.5 1.5 0 0 0 0-3H4Zm17.312 2.326c.285-.558-.145-1.22-.831-1.279l-.368-.028-.44-.028-.506-.024-.567-.016a31.753 31.753 0 0 0-.624-.006l-.59.005-.54.015-.707.034-.57.04-.158.013c-.64.057-1.008.658-.727 1.21l.155.298.092.17.213.382.254.431a25.048 25.048 0 0 0 .784 1.222l.306.438.28.383.36.468.1.127c.398.492 1.166.51 1.542.046l.213-.268.252-.328.138-.187.298-.415.158-.228.33-.495c.163-.251.312-.49.446-.713l.249-.423.21-.377.175-.326.073-.14Zm0 10c.285-.558-.145-1.22-.831-1.279l-.368-.029-.44-.027-.506-.024c-.179-.007-.368-.012-.567-.016l-.624-.006-.59.005-.54.015-.707.033-.57.04-.158.014c-.64.057-1.008.658-.727 1.21l.247.468.213.382.254.431a25.064 25.064 0 0 0 .94 1.448l.293.41.137.185.36.468.1.127c.398.492 1.166.51 1.542.046l.213-.268.252-.328.138-.187.298-.415.158-.228.33-.496c.163-.25.312-.489.446-.712l.249-.423.21-.378.175-.325.073-.141ZM2.5 12A1.5 1.5 0 0 1 4 10.5h7.5a1.5 1.5 0 0 1 0 3H4A1.5 1.5 0 0 1 2.5 12ZM4 17.5a1.5 1.5 0 0 0 0 3h7.5a1.5 1.5 0 0 0 0-3H4Z"/></g></svg>
